src/assets/images/logo.svg

<svg width="247" height="57" viewBox="0 0 247 57" fill="none" xmlns="http://www.w3.org/2000/svg">
<path d="M68.4437 4.61015C65.2124 7.31185 63.5967 11.0729 63.5967 15.8914V40.8362C63.5967 45.6548 65.2124 49.4158 68.4437 52.1153C71.6728 54.8164 76.1222 56.1675 81.7902 56.1675H116.743V48.224H81.6314C78.4 48.224 76.0824 47.5355 74.6795 46.1588C73.2766 44.7815 72.5739 42.8752 72.5739 40.4386V32.3345H116.743V24.3908H72.5739V16.5258C72.5739 13.9851 73.2766 12.0122 74.6795 10.6092C76.0824 9.20625 78.4 8.50365 81.6314 8.50365H116.743V0.55835H81.7902C76.1222 0.55835 71.6728 1.90895 68.4437 4.61015V4.61015Z" fill="#2B8A3E"/>
<path d="M177.425 22.8425C178.617 20.8553 179.213 18.4329 179.213 15.573C179.213 10.8062 177.624 7.11338 174.447 4.49078C171.268 1.86928 166.792 0.559082 161.02 0.559082H126.146V8.50268H160.147C163.376 8.50268 165.879 9.19278 167.653 10.5695C169.428 11.9463 170.315 13.905 170.315 16.448C170.315 18.9887 169.428 20.9497 167.653 22.3265C165.879 23.7032 163.376 24.3916 160.147 24.3916H126.146V32.3352H160.147C163.431 32.3352 165.945 33.0236 167.694 34.4003C169.441 35.7793 170.315 37.7381 170.315 40.2788C170.315 42.8218 169.428 44.7822 167.653 46.1573C165.879 47.5357 163.376 48.2241 160.147 48.2241L126.146 48.1439V56.1677H161.02C166.792 56.1677 171.268 54.8052 174.447 52.0756C177.624 49.35 179.213 45.5491 179.213 40.6759C179.213 37.9247 178.617 35.5922 177.425 33.6858C176.233 31.7794 174.234 30.005 171.426 28.3631C174.234 26.6695 176.233 24.8291 177.425 22.8425V22.8425Z" fill="#2B8A3E"/>
<path d="M197.83 29.6271L201.635 13.6597C202.058 12.0184 202.865 10.7196 204.057 9.76614C205.249 8.81324 206.69 8.33764 208.386 8.33764H210.849H218.794H221.257C222.951 8.33764 224.394 8.81324 225.586 9.76614C226.778 10.7196 227.585 12.0184 228.008 13.6597L231.814 29.6271H197.83ZM234.244 6.94665C233.371 5.59615 232.311 4.43215 231.067 3.45245C229.823 2.47285 228.446 1.71844 226.937 1.18654C225.427 0.658643 223.823 0.394043 222.13 0.394043H218.794H210.849H207.513C205.871 0.394043 204.282 0.658643 202.747 1.18654C201.209 1.71844 199.82 2.47285 198.576 3.45245C197.33 4.43215 196.272 5.59615 195.399 6.94665C194.524 8.29725 193.902 9.76614 193.531 11.3556L182.886 56.0009H191.546L195.937 37.5707H233.706L238.097 56.0009H246.757L236.112 11.3556C235.741 9.76614 235.119 8.29725 234.244 6.94665V6.94665Z" fill="#2B8A3E"/>
<path d="M44.6757 22.3264C42.9013 23.7031 40.3987 24.3914 37.1673 24.3914H9.60168V8.50425H37.1673C40.3987 8.50425 42.9013 9.19265 44.6757 10.5694C46.4495 11.9462 47.337 13.9049 47.337 16.4479C47.337 18.9886 46.4495 20.9491 44.6757 22.3264V22.3264ZM44.6757 46.1588C42.9013 47.5355 40.3987 48.224 37.1673 48.224H9.60168V32.335H37.1673C40.451 32.335 42.9678 33.0251 44.7155 34.4001C46.4638 35.7786 47.337 37.7374 47.337 40.2804C47.337 42.8211 46.4495 44.782 44.6757 46.1588ZM54.4471 22.8418C55.6372 20.8569 56.2335 18.4328 56.2335 15.5729C56.2335 10.8061 54.6463 7.11325 51.4673 4.49235C48.2899 1.86915 43.8144 0.55835 38.0423 0.55835H0.863281V56.1675H38.0423C43.8144 56.1675 48.2899 54.805 51.4673 52.0771C54.6463 49.3498 56.2335 45.5506 56.2335 40.678C56.2335 37.9239 55.6372 35.592 54.4471 33.6856C53.2552 31.7786 51.2562 30.0065 48.4487 28.3629C51.2562 26.6693 53.2552 24.829 54.4471 22.8418V22.8418Z" fill="#2B8A3E"/>
</svg>

<svg width="247" height="57" fill="none" xmlns="http://www.w3.org/2000/svg"><path d="M68.444 4.61c-3.232 2.702-4.847 6.463-4.847 11.281v24.945c0 4.819 1.615 8.58 4.847 11.28 3.229 2.7 7.678 4.051 13.346 4.051h34.953v-7.943H81.631c-3.231 0-5.549-.688-6.951-2.065-1.403-1.377-2.106-3.284-2.106-5.72v-8.105h44.169v-7.943h-44.17v-7.865c0-2.54.704-4.514 2.107-5.917 1.402-1.403 3.72-2.105 6.951-2.105h35.112V.558H81.79c-5.668 0-10.117 1.35-13.346 4.052zM177.425 22.843c1.192-1.988 1.788-4.41 1.788-7.27 0-4.767-1.589-8.46-4.766-11.082-3.179-2.622-7.655-3.932-13.427-3.932h-34.874v7.944h34.001c3.229 0 5.732.69 7.506 2.066 1.775 1.377 2.662 3.336 2.662 5.879 0 2.54-.887 4.502-2.662 5.878-1.774 1.377-4.277 2.066-7.506 2.066h-34.001v7.943h34.001c3.284 0 5.798.689 7.547 2.065 1.747 1.38 2.621 3.338 2.621 5.879 0 2.543-.887 4.503-2.662 5.878-1.774 1.379-4.277 2.067-7.506 2.067l-34.001-.08v8.024h34.874c5.772 0 10.248-1.363 13.427-4.092 3.177-2.726 4.766-6.527 4.766-11.4 0-2.751-.596-5.084-1.788-6.99-1.192-1.907-3.191-3.681-5.999-5.323 2.808-1.694 4.807-3.534 5.999-5.52zM197.83 29.627l3.805-15.967c.423-1.642 1.23-2.94 2.422-3.894 1.192-.953 2.633-1.428 4.329-1.428H221.257c1.694 0 3.137.475 4.329 1.428 1.192.954 1.999 2.252 2.422 3.894l3.806 15.967H197.83zm36.414-22.68a14.323 14.323 0 0 0-7.307-5.76 14.469 14.469 0 0 0-4.807-.793h-14.617c-1.642 0-3.231.265-4.766.793a14.17 14.17 0 0 0-7.348 5.76 13.82 13.82 0 0 0-1.868 4.409L182.886 56h8.66l4.391-18.43h37.769L238.097 56h8.66l-10.645-44.645a13.82 13.82 0 0 0-1.868-4.41zM44.676 22.326c-1.775 1.377-4.277 2.065-7.509 2.065H9.602V8.504h27.565c3.232 0 5.734.689 7.509 2.065 1.773 1.377 2.661 3.336 2.661 5.879 0 2.54-.888 4.501-2.661 5.878zm0 23.833c-1.775 1.377-4.277 2.065-7.509 2.065H9.602V32.335h27.565c3.284 0 5.8.69 7.548 2.065 1.749 1.379 2.622 3.337 2.622 5.88 0 2.541-.888 4.502-2.661 5.879zm9.771-23.317c1.19-1.985 1.786-4.41 1.786-7.27 0-4.766-1.587-8.459-4.766-11.08C48.29 1.87 43.814.558 38.042.558H.863v55.61h37.18c5.771 0 10.247-1.363 13.424-4.09 3.18-2.728 4.767-6.527 4.767-11.4 0-2.754-.597-5.086-1.787-6.992-1.192-1.907-3.19-3.68-5.998-5.323 2.807-1.694 4.806-3.534 5.998-5.521z" fill="#2B8A3E"/></svg>
